T: Road To Reel, The
M: 6/8
L: 1/8
K: Gmaj
|:B2A Bdg|Bdd BAG|B2A Bdg|age dBA|
B2A Bdg|Bdd BAG|B2A Bdg|age dBA:|
Bde g2b|agb age|Bde g2b|age dBA|
Bde g2b|agb age|g3 a3|ged dBA|
Bde g2b|agb age|Bde g3|age dBA|
Bde g2b|agb age|BDD Bdg|ged dBA||
